X: 32919
T: Praireton, The
R: jig
M: 6/8
K: Bminor
B2c|:dcB cBA|~B3 B2f|d2B Bcd|e^de f2e|
~=d2B cBA|~B3 Bf/^g/a|^gfe fed|e3 f2e:|
~d3 fed|eaa =gec|~d3 fed|efe ABc|
~d3 fed|eaa gec|dcB cBA|1 ~B3 B2c:|2 Bcd e2f||

